X: 31
T: No_129_Dream_Song.krn
%%abc-version 2.0
%%abcx-abcm2ps-target-version 5.9.1 (29 Sep 2008)
%%abc-creator hum2abc beta
%%abcx-conversion-date 2020/08/10 18:54:56
%%gracespace 0 6 6
%%humdrum-veritas 1157173611
%%humdrum-veritas-data 2272723227
%%linebreak <none>
%%barnumbers 0
L: 1/8
M: 2/4
%%staves {1 2}
V: 1 clef=treble
V: 2 clef=bass
K: Db
[V:1] [K:clef=treble][M:2/4]A2FA | 
[V:2] [K:clef=bass][M:2/4](3!accent!G,, z G,, (3!accent!G,, z G,, | 
[V:1] A4 | 
[V:2] z4 | 
[V:1] AFD2 | 
[V:2] z4 | 
[V:1] FF FE | 
[V:2] z4 | 
[V:1] FF D3/D/ | 
[V:2] z4 | 
[V:1] D3D ||  
[V:2] z4 ||  
[V:1] [M:3/4]D6 | 
[V:2] [M:3/4]z6 | 
[V:1] FF DE FD ||  
[V:2] z6 ||  
[V:1] [M:2/4]D4 | 
[V:2] [M:2/4]z4 | 
[V:1] D>B,A,2 ||  
[V:2] z4 ||  
[V:1] [M:3/4]D2D2D3/B,/[K:clef=bass] | 
[V:2] [M:3/4]z6 | 
[V:1] A,2A,2F,2 | 
[V:2] z6 | 
[V:1] A,2A,4- ||  
[V:2] z6 ||  
[V:1] [M:2/4]A,F,D,2 ||  
[V:2] [M:2/4]z4 ||  
[V:1] [M:3/4]F,F, F,E, F,3/E,/ | 
[V:2] [M:3/4]z6 | 
[V:1] D,2D,3D, | 
[V:2] z6 | 
[V:1] D,6[K:clef=treble] ||  
[V:2] z6 ||  
[V:1] [M:2/4]{/D}D2B,D ||  
[V:2] [M:2/4]z4 ||  
[V:1] [M:3/4]D6 | 
[V:2] [M:3/4]z6 | 
[V:1] FF DE FD[K:clef=bass] ||  
[V:2] z6 ||  
[V:1] [M:2/4]D4 | 
[V:2] [M:2/4]z4 | 
[V:1] D>B,A,2 ||  
[V:2] z4 ||  
[V:1] [M:3/4]D2D2D3/B,/ | 
[V:2] [M:3/4]z6 | 
[V:1] A,2A,2F,2 | 
[V:2] z6 | 
[V:1] A,2A,4- ||  
[V:2] z6 ||  
[V:1] [M:2/4]A,F,D,2 ||  
[V:2] [M:2/4]z4 ||  
[V:1] [M:3/4]F,F, F,E, F,3/E,/ | 
[V:2] [M:3/4]z6 | 
[V:1] D,2D,3D, | 
[V:2] z6 | 
[V:1] D,6 |]  
[V:2] z6 |]  


